;FLAVOR:UltiGCode
;TIME:12094
;MATERIAL:28270
;MATERIAL2:0
;NOZZLE_DIAMETER:0.6
;MINX:75.915
;MINY:36.915
;MINZ:0.4
;MAXX:147.085
;MAXY:186.085
;MAXZ:10
;Generated with Cura_SteamEngine 5.2.1
M82 ;absolute extrusion mode
G0 F3000 Y50 ;avoid prime blob
G92 E0
G92 E0
G10
;LAYER_COUNT:65
;LAYER:0
M107
G0 F3927.3 X76.895 Y41.153 Z0.4
;TYPE:SKIRT
G11
G1 F1800 X77.313 Y40.466 E0.193
G1 X77.798 Y39.823 E0.3863
G1 X78.343 Y39.232 E0.57924
G1 X78.945 Y38.698 E0.77237
G1 X79.597 Y38.226 E0.96555
G1 X80.293 Y37.821 E1.15881
G1 X81.025 Y37.487 E1.35192
G1 X81.787 Y37.228 E1.54507
G1 X82.57 Y37.045 E1.73806
G1 X83.368 Y36.941 E1.9312
G1 X84.015 Y36.915 E2.0866
G1 X138.985 Y36.915 E15.2794
G1 X139.789 Y36.955 E15.4726
G1 X140.585 Y37.075 E15.6658
G1 X141.365 Y37.272 E15.85888
G1 X142.121 Y37.547 E16.05195
G1 X142.847 Y37.895 E16.24517
G1 X143.534 Y38.313 E16.43817
G1 X144.177 Y38.798 E16.63147
G1 X144.768 Y39.343 E16.82441
G1 X145.302 Y39.945 E17.01754
G1 X145.774 Y40.597 E17.21072
G1 X146.179 Y41.293 E17.40399
G1 X146.513 Y42.025 E17.59709
G1 X146.772 Y42.787 E17.79025
G1 X146.955 Y43.57 E17.98323
G1 X147.059 Y44.368 E18.17637
G1 X147.085 Y45.015 E18.33177
G1 X147.085 Y177.985 E50.24457
G1 X147.045 Y178.789 E50.43777
G1 X146.925 Y179.585 E50.63097
G1 X146.728 Y180.365 E50.82405
G1 X146.453 Y181.121 E51.01712
G1 X146.105 Y181.847 E51.21034
G1 X145.687 Y182.534 E51.40335
G1 X145.202 Y183.177 E51.59664
G1 X144.657 Y183.768 E51.78959
G1 X144.055 Y184.302 E51.98272
G1 X143.403 Y184.774 E52.1759
G1 X142.707 Y185.179 E52.36916
G1 X141.975 Y185.513 E52.56226
G1 X141.213 Y185.772 E52.75542
G1 X140.43 Y185.955 E52.9484
G1 X139.632 Y186.059 E53.14154
G1 X138.985 Y186.085 E53.29695
G1 X84.015 Y186.085 E66.48975
G1 X83.211 Y186.045 E66.68294
G1 X82.415 Y185.925 E66.87614
G1 X81.635 Y185.728 E67.06922
G1 X80.879 Y185.453 E67.26229
G1 X80.153 Y185.105 E67.45552
G1 X79.466 Y184.687 E67.64852
G1 X78.823 Y184.202 E67.84181
G1 X78.232 Y183.657 E68.03476
G1 X77.698 Y183.055 E68.22789
G1 X77.226 Y182.403 E68.42107
G1 X76.821 Y181.707 E68.61433
G1 X76.487 Y180.975 E68.80743
G1 X76.228 Y180.213 E69.00059
G1 X76.045 Y179.43 E69.19357
G1 X75.941 Y178.632 E69.38671
G1 X75.915 Y177.985 E69.54212
G1 X75.915 Y45.015 E101.45492
G1 X75.955 Y44.211 E101.64812
G1 X76.075 Y43.415 E101.84132
G1 X76.272 Y42.635 E102.03439
G1 X76.547 Y41.879 E102.22746
G1 X76.895 Y41.153 E102.42069
G0 F3927.3 X77.493 Y41.311
G1 F1800 X77.91 Y40.659 E102.60644
G1 X78.392 Y40.053 E102.79227
G1 X78.933 Y39.499 E102.97811
G1 X79.529 Y39.005 E103.1639
G1 X80.173 Y38.574 E103.34988
G1 X80.857 Y38.212 E103.53561
G1 X81.575 Y37.923 E103.72137
G1 X82.32 Y37.709 E103.9074
G1 X83.082 Y37.573 E104.09317
G1 X84.015 Y37.515 E104.31752
G1 X138.985 Y37.515 E117.51032
G1 X139.758 Y37.555 E117.69609
G1 X140.523 Y37.674 E117.8819
G1 X141.272 Y37.872 E118.06783
G1 X141.996 Y38.146 E118.25362
G1 X142.689 Y38.493 E118.43962
G1 X143.341 Y38.91 E118.62537
G1 X143.947 Y39.392 E118.8112
G1 X144.501 Y39.933 E118.99705
G1 X144.995 Y40.529 E119.18283
G1 X145.426 Y41.173 E119.36881
G1 X145.788 Y41.857 E119.55455
G1 X146.077 Y42.575 E119.7403
G1 X146.291 Y43.32 E119.92633
G1 X146.427 Y44.082 E120.1121
G1 X146.485 Y45.015 E120.33645
G1 X146.485 Y177.985 E152.24925
G1 X146.445 Y178.758 E152.43502
G1 X146.326 Y179.523 E152.62083
G1 X146.128 Y180.272 E152.80676
G1 X145.854 Y180.996 E152.99255
G1 X145.507 Y181.689 E153.17856
G1 X145.09 Y182.341 E153.3643
G1 X144.608 Y182.947 E153.55014
G1 X144.067 Y183.501 E153.73598
G1 X143.471 Y183.995 E153.92177
G1 X142.827 Y184.426 E154.10775
G1 X142.143 Y184.788 E154.29348
G1 X141.425 Y185.077 E154.47924
G1 X140.68 Y185.291 E154.66527
G1 X139.918 Y185.427 E154.85104
G1 X138.985 Y185.485 E155.07539
G1 X84.015 Y185.485 E168.26819
G1 X83.242 Y185.445 E168.45396
G1 X82.477 Y185.326 E168.63976
G1 X81.728 Y185.128 E168.8257
G1 X81.004 Y184.854 E169.01149
G1 X80.311 Y184.507 E169.19749
G1 X79.659 Y184.09 E169.38324
G1 X79.053 Y183.608 E169.56907
G1 X78.499 Y183.067 E169.75491
G1 X78.005 Y182.471 E169.9407
G1 X77.574 Y181.827 E170.12668
G1 X77.212 Y181.143 E170.31241
G1 X76.923 Y180.425 E170.49817
G1 X76.709 Y179.68 E170.6842
G1 X76.573 Y178.918 E170.86997
G1 X76.515 Y177.985 E171.09432
G1 X76.515 Y45.015 E203.00712
G1 X76.555 Y44.242 E203.19289
G1 X76.674 Y43.477 E203.3787
G1 X76.872 Y42.728 E203.56463
G1 X77.146 Y42.004 E203.75042
G1 X77.493 Y41.311 E203.93643
G0 F3927.3 X78.091 Y41.477
G1 F1800 X78.506 Y40.86 E204.11489
G1 X78.984 Y40.292 E204.29305
G1 X79.521 Y39.779 E204.47129
G1 X80.11 Y39.326 E204.64962
G1 X80.744 Y38.94 E204.82777
G1 X81.416 Y38.623 E205.00609
G1 X82.118 Y38.381 E205.1843
G1 X82.842 Y38.215 E205.36257
G1 X83.7 Y38.115 E205.56988
G1 X138.985 Y38.115 E218.83828
G1 X139.727 Y38.155 E219.01662
G1 X140.46 Y38.274 E219.19484
G1 X141.176 Y38.472 E219.37313
G1 X141.866 Y38.745 E219.55122
G1 X142.523 Y39.091 E219.72943
G1 X143.14 Y39.506 E219.90789
G1 X143.708 Y39.984 E220.08606
G1 X144.221 Y40.521 E220.2643
G1 X144.674 Y41.11 E220.44263
G1 X145.06 Y41.744 E220.62078
G1 X145.377 Y42.416 E220.7991
G1 X145.619 Y43.118 E220.97731
G1 X145.785 Y43.842 E221.15558
G1 X145.885 Y44.7 E221.36289
G1 X145.885 Y177.985 E253.35129
G1 X145.845 Y178.727 E253.52963
G1 X145.726 Y179.46 E253.70785
G1 X145.528 Y180.176 E253.88614
G1 X145.255 Y180.866 E254.06423
G1 X144.909 Y181.523 E254.24244
G1 X144.494 Y182.14 E254.4209
G1 X144.016 Y182.708 E254.59907
G1 X143.479 Y183.221 E254.77731
G1 X142.89 Y183.674 E254.95564
G1 X142.256 Y184.06 E255.13378
G1 X141.584 Y184.377 E255.31211
G1 X140.882 Y184.619 E255.49032
G1 X140.158 Y184.785 E255.66859
G1 X139.3 Y184.885 E255.8759
G1 X84.015 Y184.885 E269.1443
G1 X83.273 Y184.845 E269.32264
G1 X82.54 Y184.726 E269.50086
G1 X81.824 Y184.528 E269.67915
G1 X81.134 Y184.255 E269.85724
G1 X80.477 Y183.909 E270.03545
G1 X79.86 Y183.494 E270.21391
G1 X79.292 Y183.016 E270.39208
G1 X78.779 Y182.479 E270.57032
G1 X78.326 Y181.89 E270.74865
G1 X77.94 Y181.256 E270.92679
G1 X77.623 Y180.584 E271.10512
G1 X77.381 Y179.882 E271.28333
G1 X77.215 Y179.158 E271.4616
G1 X77.115 Y178.3 E271.66891
G1 X77.115 Y45.015 E303.65731
G1 X77.155 Y44.273 E303.83565
G1 X77.274 Y43.54 E304.01387
G1 X77.472 Y42.824 E304.19216
G1 X77.745 Y42.134 E304.37025
G1 X78.091 Y41.477 E304.54846
G0 F3927.3 X78.689 Y41.65
G1 F1800 X79.101 Y41.072 E304.71881
G1 X79.576 Y40.545 E304.88909
G1 X80.107 Y40.074 E305.05944
G1 X80.687 Y39.666 E305.22963
G1 X81.31 Y39.325 E305.40008
G1 X81.967 Y39.057 E305.57038
G1 X82.65 Y38.865 E305.74065
G1 X83.351 Y38.75 E305.91114
G1 X84.015 Y38.715 E306.07072
G1 X138.985 Y38.715 E319.26352
G1 X139.694 Y38.755 E319.43395
G1 X140.393 Y38.874 E319.60412
G1 X141.075 Y39.072 E319.77456
G1 X141.73 Y39.344 E319.94478
G1 X142.35 Y39.689 E320.11506
G1 X142.928 Y40.101 E320.28542
G1 X143.455 Y40.576 E320.45569
G1 X143.926 Y41.107 E320.62604
G1 X144.334 Y41.687 E320.79623
G1 X144.675 Y42.31 E320.96668
G1 X144.943 Y42.967 E321.13698
G1 X145.135 Y43.65 E321.30725
G1 X145.25 Y44.351 E321.47774
G1 X145.285 Y45.015 E321.63732
G1 X145.285 Y177.985 E353.55012
G1 X145.245 Y178.694 E353.72055
G1 X145.126 Y179.393 E353.89073
G1 X144.928 Y180.075 E354.06116
G1 X144.656 Y180.73 E354.23138
G1 X144.311 Y181.35 E354.40167
G1 X143.899 Y181.928 E354.57202
G1 X143.424 Y182.455 E354.74229
G1 X142.893 Y182.926 E354.91264
G1 X142.313 Y183.334 E355.08283
G1 X141.69 Y183.675 E355.25329
G1 X141.033 Y183.943 E355.42358
G1 X140.35 Y184.135 E355.59385
G1 X139.649 Y184.25 E355.76434
G1 X138.985 Y184.285 E355.92393
G1 X84.015 Y184.285 E369.11673
G1 X83.306 Y184.245 E369.28716
G1 X82.607 Y184.126 E369.45733
G1 X81.925 Y183.928 E369.62777
G1 X81.27 Y183.656 E369.79798
G1 X80.65 Y183.311 E369.96827
G1 X80.072 Y182.899 E370.13862
G1 X79.545 Y182.424 E370.3089
G1 X79.074 Y181.893 E370.47925
G1 X78.666 Y181.313 E370.64944
G1 X78.325 Y180.69 E370.81989
G1 X78.057 Y180.033 E370.99018
G1 X77.865 Y179.35 E371.16046
G1 X77.75 Y178.649 E371.33095
G1 X77.715 Y177.985 E371.49053
G1 X77.715 Y45.015 E403.40333
G1 X77.755 Y44.306 E403.57376
G1 X77.874 Y43.607 E403.74393
G1 X78.072 Y42.925 E403.91437
G1 X78.344 Y42.27 E404.08459
G1 X78.689 Y41.65 E404.25487
G0 F3927.3 X79.286 Y41.832
G1 F1800 X79.696 Y41.296 E404.41683
G1 X80.166 Y40.811 E404.57892
G1 X80.69 Y40.386 E404.74084
G1 X81.26 Y40.025 E404.90277
G1 X81.869 Y39.734 E405.06476
G1 X82.509 Y39.518 E405.22687
G1 X83.169 Y39.378 E405.3888
G1 X84.015 Y39.315 E405.5924
G1 X138.985 Y39.315 E418.7852
G1 X139.659 Y39.355 E418.94725
G1 X140.323 Y39.474 E419.10914
G1 X140.969 Y39.671 E419.27123
G1 X141.586 Y39.943 E419.43306
G1 X142.168 Y40.286 E419.5952
G1 X142.704 Y40.696 E419.75716
G1 X143.189 Y41.166 E419.91924
G1 X143.614 Y41.69 E420.08117
G1 X143.975 Y42.26 E420.2431
G1 X144.266 Y42.869 E420.40509
G1 X144.482 Y43.509 E420.5672
G1 X144.622 Y44.169 E420.72912
G1 X144.685 Y45.015 E420.93273
G1 X144.685 Y177.985 E452.84553
G1 X144.645 Y178.659 E453.00757
G1 X144.526 Y179.323 E453.16947
G1 X144.329 Y179.969 E453.33156
G1 X144.057 Y180.586 E453.49339
G1 X143.714 Y181.168 E453.65552
G1 X143.304 Y181.704 E453.81748
G1 X142.834 Y182.189 E453.97957
G1 X142.31 Y182.614 E454.14149
G1 X141.74 Y182.975 E454.30342
G1 X141.131 Y183.266 E454.46541
G1 X140.491 Y183.482 E454.62752
G1 X139.831 Y183.622 E454.78945
G1 X138.985 Y183.685 E454.99305
G1 X84.015 Y183.685 E468.18585
G1 X83.341 Y183.645 E468.34789
G1 X82.677 Y183.526 E468.50979
G1 X82.031 Y183.329 E468.67188
G1 X81.414 Y183.057 E468.83371
G1 X80.832 Y182.714 E468.99585
G1 X80.296 Y182.304 E469.15781
G1 X79.811 Y181.834 E469.31989
G1 X79.386 Y181.31 E469.48182
G1 X79.025 Y180.74 E469.64375
G1 X78.734 Y180.131 E469.80574
G1 X78.518 Y179.491 E469.96785
G1 X78.378 Y178.831 E470.12977
G1 X78.315 Y177.985 E470.33337
G1 X78.315 Y45.015 E502.24617
G1 X78.355 Y44.341 E502.40822
G1 X78.474 Y43.677 E502.57012
G1 X78.671 Y43.031 E502.73221
G1 X78.943 Y42.414 E502.89404
G1 X79.286 Y41.832 E503.05617
G0 F3927.3 X79.883 Y42.026
G1 F1800 X80.289 Y41.533 E503.20945
G1 X80.753 Y41.094 E503.36275
G1 X81.269 Y40.718 E503.51598
G1 X81.827 Y40.408 E503.66918
G1 X82.42 Y40.171 E503.82245
G1 X83.037 Y40.01 E503.97548
G1 X83.762 Y39.915 E504.15097
G1 X138.985 Y39.915 E517.40449
G1 X139.622 Y39.955 E517.55767
G1 X140.249 Y40.074 E517.71084
G1 X140.857 Y40.271 E517.86423
G1 X141.435 Y40.542 E518.01744
G1 X141.974 Y40.883 E518.17051
G1 X142.467 Y41.289 E518.32379
G1 X142.906 Y41.753 E518.47709
G1 X143.282 Y42.269 E518.63032
G1 X143.592 Y42.827 E518.78352
G1 X143.829 Y43.42 E518.93679
G1 X143.99 Y44.037 E519.08983
G1 X144.085 Y44.762 E519.26531
G1 X144.085 Y177.985 E551.23883
G1 X144.045 Y178.622 E551.39202
G1 X143.926 Y179.249 E551.54518
G1 X143.729 Y179.857 E551.69857
G1 X143.458 Y180.435 E551.85178
G1 X143.117 Y180.974 E552.00486
G1 X142.711 Y181.467 E552.15813
G1 X142.247 Y181.906 E552.31144
G1 X141.731 Y182.282 E552.46467
G1 X141.173 Y182.592 E552.61787
G1 X140.58 Y182.829 E552.77113
G1 X139.963 Y182.99 E552.92417
G1 X139.238 Y183.085 E553.09966
G1 X84.015 Y183.085 E566.35318
G1 X83.378 Y183.045 E566.50636
G1 X82.751 Y182.926 E566.65952
G1 X82.143 Y182.729 E566.81291
G1 X81.565 Y182.458 E566.96612
G1 X81.026 Y182.117 E567.1192
G1 X80.533 Y181.711 E567.27248
G1 X80.094 Y181.247 E567.42578
G1 X79.718 Y180.731 E567.57901
G1 X79.408 Y180.173 E567.73221
G1 X79.171 Y179.58 E567.88547
G1 X79.01 Y178.963 E568.03851
G1 X78.915 Y178.238 E568.214
G1 X78.915 Y45.015 E600.18752
G1 X78.955 Y44.378 E600.3407
G1 X79.074 Y43.751 E600.49387
G1 X79.271 Y43.143 E600.64726
G1 X79.542 Y42.565 E600.80047
G1 X79.883 Y42.026 E600.95354
G0 F3927.3 X80.479 Y42.232
G1 F1800 X80.88 Y41.786 E601.09748
G1 X81.337 Y41.398 E601.24136
G1 X81.842 Y41.074 E601.38536
G1 X82.385 Y40.82 E601.52924
G1 X82.958 Y40.641 E601.67331
G1 X83.687 Y40.515 E601.85086
G1 X138.985 Y40.515 E615.12238
G1 X139.583 Y40.555 E615.26622
G1 X140.171 Y40.674 E615.41021
G1 X140.738 Y40.87 E615.55419
G1 X141.273 Y41.14 E615.69801
G1 X141.768 Y41.479 E615.842
G1 X142.214 Y41.88 E615.98594
G1 X142.602 Y42.337 E616.12982
G1 X142.926 Y42.842 E616.27382
G1 X143.18 Y43.385 E616.4177
G1 X143.359 Y43.958 E616.56177
G1 X143.485 Y44.687 E616.73932
G1 X143.485 Y177.985 E648.73084
G1 X143.445 Y178.583 E648.87468
G1 X143.326 Y179.171 E649.01867
G1 X143.13 Y179.738 E649.16265
G1 X142.86 Y180.273 E649.30647
G1 X142.521 Y180.768 E649.45046
G1 X142.12 Y181.214 E649.5944
G1 X141.663 Y181.602 E649.73828
G1 X141.158 Y181.926 E649.88228
G1 X140.615 Y182.18 E650.02616
G1 X140.042 Y182.359 E650.17023
G1 X139.313 Y182.485 E650.34778
G1 X84.015 Y182.485 E663.6193
G1 X83.417 Y182.445 E663.76314
G1 X82.829 Y182.326 E663.90713
G1 X82.262 Y182.13 E664.05111
G1 X81.727 Y181.86 E664.19493
G1 X81.232 Y181.521 E664.33892
G1 X80.786 Y181.12 E664.48286
G1 X80.398 Y180.663 E664.62674
G1 X80.074 Y180.158 E664.77074
G1 X79.82 Y179.615 E664.91462
G1 X79.641 Y179.042 E665.05869
G1 X79.515 Y178.313 E665.23624
G1 X79.515 Y45.015 E697.22776
G1 X79.555 Y44.417 E697.3716
G1 X79.674 Y43.829 E697.51559
G1 X79.87 Y43.262 E697.65957
G1 X80.14 Y42.727 E697.80339
G1 X80.479 Y42.232 E697.94738
G0 F3927.3 X81.073 Y42.454
G1 F1800 X81.469 Y42.061 E698.08128
G1 X81.917 Y41.727 E698.21539
G1 X82.408 Y41.462 E698.3493
G1 X82.932 Y41.269 E698.48332
G1 X83.478 Y41.152 E698.61733
G1 X84.015 Y41.115 E698.74652
G1 X138.985 Y41.115 E711.93932
G1 X139.542 Y41.155 E712.07334
G1 X140.087 Y41.274 E712.20723
G1 X140.61 Y41.47 E712.34127
G1 X141.099 Y41.738 E712.4751
G1 X141.546 Y42.073 E712.60916
G1 X141.939 Y42.469 E712.74306
G1 X142.273 Y42.917 E712.87718
G1 X142.538 Y43.408 E713.01108
G1 X142.731 Y43.932 E713.1451
G1 X142.848 Y44.478 E713.27912
G1 X142.885 Y45.015 E713.4083
G1 X142.885 Y177.985 E745.3211
G1 X142.845 Y178.542 E745.45513
G1 X142.726 Y179.087 E745.58901
G1 X142.53 Y179.61 E745.72305
G1 X142.262 Y180.099 E745.85688
G1 X141.927 Y180.546 E745.99095
G1 X141.531 Y180.939 E746.12485
G1 X141.083 Y181.273 E746.25896
G1 X140.592 Y181.538 E746.39287
G1 X140.068 Y181.731 E746.52688
G1 X139.522 Y181.848 E746.6609
G1 X138.985 Y181.885 E746.79009
G1 X84.015 Y181.885 E759.98289
G1 X83.458 Y181.845 E760.11691
G1 X82.913 Y181.726 E760.25079
G1 X82.39 Y181.53 E760.38484
G1 X81.901 Y181.262 E760.51867
G1 X81.454 Y180.927 E760.65273
G1 X81.061 Y180.531 E760.78663
G1 X80.727 Y180.083 E760.92074
G1 X80.462 Y179.592 E761.05465
G1 X80.269 Y179.068 E761.18867
G1 X80.152 Y178.522 E761.32268
G1 X80.115 Y177.985 E761.45187
G1 X80.115 Y45.015 E793.36467
G1 X80.155 Y44.458 E793.49869
G1 X80.274 Y43.913 E793.63257
G1 X80.47 Y43.39 E793.76662
G1 X80.738 Y42.901 E793.90045
G1 X81.073 Y42.454 E794.03451
G0 F3927.3 X81.666 Y42.697
G1 F1800 X82.054 Y42.361 E794.1577
G1 X82.489 Y42.089 E794.28083
G1 X82.962 Y41.888 E794.40417
G1 X83.459 Y41.762 E794.52722
G1 X84.015 Y41.715 E794.66114
G1 X138.985 Y41.715 E807.85394
G1 X139.497 Y41.755 E807.97719
G1 X139.996 Y41.874 E808.10031
G1 X140.471 Y42.069 E808.22354
G1 X140.91 Y42.335 E808.34674
G1 X141.303 Y42.666 E808.47005
G1 X141.639 Y43.054 E808.59324
G1 X141.911 Y43.489 E808.71637
G1 X142.112 Y43.962 E808.83971
G1 X142.238 Y44.459 E808.96276
G1 X142.285 Y45.015 E809.09668
G1 X142.285 Y177.985 E841.00948
G1 X142.245 Y178.497 E841.13273
G1 X142.126 Y178.996 E841.25585
G1 X141.931 Y179.471 E841.37909
G1 X141.665 Y179.91 E841.50228
G1 X141.334 Y180.303 E841.62559
G1 X140.946 Y180.639 E841.74878
G1 X140.511 Y180.911 E841.87191
G1 X140.038 Y181.112 E841.99525
G1 X139.541 Y181.238 E842.1183
G1 X138.985 Y181.285 E842.25222
G1 X84.015 Y181.285 E855.44502
G1 X83.503 Y181.245 E855.56828
G1 X83.004 Y181.126 E855.69139
G1 X82.529 Y180.931 E855.81463
G1 X82.09 Y180.665 E855.93782
G1 X81.697 Y180.334 E856.06113
G1 X81.361 Y179.946 E856.18432
G1 X81.089 Y179.511 E856.30745
G1 X80.888 Y179.038 E856.43079
G1 X80.762 Y178.541 E856.55385
G1 X80.715 Y177.985 E856.68776
G1 X80.715 Y45.015 E888.60056
G1 X80.755 Y44.503 E888.72382
G1 X80.874 Y44.004 E888.84693
G1 X81.069 Y43.529 E888.97017
G1 X81.335 Y43.09 E889.09336
G1 X81.666 Y42.697 E889.21668
G0 F3927.3 X82.255 Y42.967
G1 F1800 X83.22 Y42.392 E889.48627
G1 X84.015 Y42.315 E889.67797
